X:1
T:Title
%%score { ( 1 3 ) | ( 2 4 5 ) }
L:1/8
M:4/2
K:D
V:1 treble nm="Grand Piano"
V:3 treble 
V:2 bass 
V:4 bass 
V:5 bass 
V:1
 z8 z4[Q:1/4=240] [A,DF]4 | [A,DF]8 [CE]8 | [F,D]12 [A,CE]4 | [A,DF]4 [A,DF]4 [G,DG]4 [DA]4 | %4
 [DB]12 c4 | d8 B8 | A4 F4 E4 F4 | [B,G]4- [B,EG]4 [A,DF]8 | [A,CE]12 [A,CA]4 | [FA]8 G4- [DG]4 | %10
 F12 F4 | F4 F4 B4 c4 | d12 e4 | [Af]8 [Fd]8 | B4 d4 E4 G4 | [DF]8 [CE]8 | %16
[M:6/4][K:bass] [F,D]12 |] %17
V:2
 z8 z4 D,4 | D,8 z4 G,4 | B,,12 A,,4 | D,4 =C,4 B,,4 [A,,F,]4 | [G,,G,]12 [G,E]4 | %5
 [F,A,D]8 [G,B,D]8 | [F,D]4 [D,A,D]4 [C,A,]4 [D,A,D]4 | B,,4 C,4 D,8 | A,,12 A,,4 | z4 D4 z4 B,4 | %10
 [F,^A,C]12 [F,A,C]4 | [B,D]4 [A,B,D]4 [G,B,D]4 [F,^A,F]4 | [B,F]12 [A,CA]4 | [D,D]8 [D,A,]8 | %14
 [G,B,D]4 [F,A,D]4 [G,B,D]4 [E,B,D]4 | A,12 z4 |[M:6/4] D,12 |] %17
V:3
 x16 | z8 A,4 z4 | x16 | x16 | x16 | x16 | x16 | D4 z4 z8 | x16 | A,4 z4 [CE]4 z4 | x16 | x16 | %12
 x16 | x16 | x16 | x16 |[M:6/4][K:bass] x12 |] %17
V:4
 x16 | z8 A,,8 | x16 | x16 | x16 | x16 | x16 | x16 | x16 | D,8 E,8 | x16 | x16 | x16 | x16 | x16 | %15
 z8 z4 G,4 |[M:6/4] x12 |] %17
V:5
 x16 | x16 | x16 | x16 | x16 | x16 | x16 | x16 | x16 | x16 | x16 | x16 | x16 | x16 | x16 | %15
 z8 A,,8 |[M:6/4] x12 |] %17

